img/social-icons/vk.svg

<svg width="28" height="28" viewBox="0 0 28 28" fill="none" xmlns="http://www.w3.org/2000/svg">
<path d="M22.1667 0H5.83333C2.61217 0 0 2.61217 0 5.83333V22.1667C0 25.3878 2.61217 28 5.83333 28H22.1667C25.389 28 28 25.3878 28 22.1667V5.83333C28 2.61217 25.389 0 22.1667 0ZM22.4583 19.8287H19.9687C18.5628 19.8287 18.3248 19.0272 17.1675 17.8698C16.121 16.8233 15.54 17.626 15.5645 19.1158C15.5715 19.5113 15.3767 19.8287 14.9042 19.8287C13.4295 19.8287 11.3108 20.0363 9.1665 17.7217C6.96967 15.3498 4.66667 10.5922 4.66667 10.1232C4.66667 9.84667 4.89533 9.72183 5.278 9.72183H7.80967C8.47933 9.72183 8.5365 10.0532 8.72317 10.479C9.50133 12.2535 11.3657 15.8153 11.8615 13.8273C12.1462 12.6863 12.2628 10.0415 11.0413 9.814C10.3483 9.68567 11.5687 8.94367 13.3373 8.94367C13.7772 8.94367 14.2543 8.9915 14.7432 9.1035C15.6403 9.31233 15.6427 9.71367 15.631 10.3005C15.5855 12.5207 15.3172 14.0152 15.9028 14.392C16.4617 14.7537 17.9317 12.3888 18.7063 10.5642C18.9198 10.059 18.9618 9.72183 19.5627 9.72183H22.659C24.2807 9.72183 22.4467 12.0517 21.0455 13.8717C19.9162 15.3358 19.9768 15.365 21.2893 16.583C22.2262 17.451 23.331 18.6363 23.331 19.3083C23.3333 19.6257 23.086 19.8287 22.4583 19.8287Z" fill="#FAFAFA"/>
</svg>

<svg width="28" height="28" fill="none" xmlns="http://www.w3.org/2000/svg"><path d="M22.167 0H5.833A5.834 5.834 0 000 5.833v16.334A5.834 5.834 0 005.833 28h16.334A5.833 5.833 0 0028 22.167V5.833A5.833 5.833 0 0022.167 0zm.291 19.829h-2.49c-1.405 0-1.643-.802-2.8-1.96-1.047-1.046-1.628-.243-1.603 1.247.007.395-.188.713-.66.713-1.475 0-3.594.207-5.739-2.107-2.196-2.372-4.5-7.13-4.5-7.599 0-.276.23-.401.612-.401H7.81c.67 0 .727.331.913.757.778 1.775 2.643 5.336 3.138 3.348.285-1.14.402-3.786-.82-4.013-.693-.128.528-.87 2.296-.87.44 0 .917.047 1.406.16.897.208.9.61.888 1.197-.046 2.22-.314 3.714.272 4.091.559.362 2.029-2.003 2.803-3.828.214-.505.256-.842.857-.842h3.096c1.622 0-.212 2.33-1.613 4.15-1.13 1.464-1.07 1.493.243 2.711.937.868 2.042 2.053 2.042 2.725.002.318-.245.52-.873.52z" fill="#FAFAFA"/></svg>
